X:1
T:Title
%%score { ( 1 3 ) | ( 2 4 ) }
L:1/8
M:4/4
K:Eb
V:1 treble nm="Grand Piano"
V:3 treble 
V:2 bass 
V:4 bass 
V:1
 z4 z2[Q:1/4=110] E>F | G2 G2 [DG]2 [DF]2 | F2 E4 G>[FA] | [GB]2 [GB]2 [_Gc]2 [G=A]2 | %4
 [GB]6 [GB]>[GB] | c2 c2 d2 c2 | [Ac]2 [GB]4 G>G | G2 F2 F2 F2 | [DF]6 z2 | G2 G2 [DG]2 [DF]2 | %10
 F2 E4 G>[FA] | [GB]2 [GB]2 [_Gc]2 [G=A]2 | [GB]6 [GB]>[GB] | c2 e2 d2 c2 | c2 B2 E2 F2 | %15
 G2 B2 [DB]2 [FB]2 | [EB]4 z4 | [EGB]4 [EAc]3 [EGB] | [B,EG]2 [B,EG]4 [B,EG]>[EG] | %19
 [B,EB]2 [B,EB]2 [B,EB]2 [CE=A]2 | [B,DA]6 z2 | [Ac]4 [Ad]3 [Ac] | [FA]2 [B,FA]4 [DF]>[EG] | %23
 [FA]2 [ce]2 [Bd]2 [Ac]2 | [GB]6 z2 | [EGB]4 [EAc]3 [EGB] | [B,EG]2 [B,EG]4 [B,EB]>[EB] | %27
 [Ge]2 [Ge]2 [Ad]2 [B_d]2 | c6 c>c | c2 e2 d2 c2 | %30
 c2 B2 z2 E>F[Q:1/4=108][Q:1/4=105][Q:1/4=103][Q:1/4=101][Q:1/4=99][Q:1/4=96][Q:1/4=94][Q:1/4=92][Q:1/4=89][Q:1/4=87][Q:1/4=85] | %31
 G B3 [DG] [DF]3 |[M:3/4] E6 |] %33
V:2
 z4 z2 [E,G,]>[E,A,E] | [E,B,E]2 [E,B,E]2 [B,,B,]2 [B,,A,]2 | [E,A,D]2 [E,G,]4 [E,B,E]>[E,B,] | %3
 [E,E]2 [E,B,]2 [E,=A,]2 [E,C]2 | [E,B,]6 [E,E]>[E,E] | [A,EA]2 [A,EA]2 [A,FA]2 [A,EA]2 | %6
 [E,E]2 [E,E]4 [=E,B,_D]>[E,B,D] | [F,B,D]2 [F,B,D]2 [F,=A,C]2 [F,CE]2 | B,4 z2 [E,G,]>[E,A,E] | %9
 [E,B,E]2 [E,B,E]2 [B,,B,]2 [B,,A,]2 | [E,A,D]2 [E,G,]4 [E,B,E]>[E,B,] | %11
 [E,E]2 [E,B,]2 [E,=A,]2 [E,C]2 | [E,B,]6 [E,E]>[E,E] | [A,EA]2 [A,CA]2 [=A,D_G]2 [A,EG]2 | %14
 [B,EG]2 [B,EG]2[K:bass] [A,C]2 [A,=B,E]2 | [B,E]2 [G,B,E]2 [B,,F,]2 [B,,A,]2 | E,2 z2 z4 | %17
 E,4 E,3 E, | z4 z2 G,2 | G,2 G,2 G,2 _G,2 | F,2 B,,2 D,2 F,2 | B,4 [B,,B,]3 [B,,B,] | %22
 [B,,B,]2 D,2 F,2 B,>B, | [B,,B,]2 [B,,B,]2 [B,,B,]2 [B,,B,]2 | z2 E2 C2 B,2 | E,4 E,3 E, | %26
 z4 z2 G,2 | [E,B,]2 [E,B,]2 [F,B,]2[K:treble] [G,E]2 | [A,EA]6 [A,EA]>[A,EA] | %29
 [=A,E_G]2 [A,CG]2 [A,DG]2 [A,EG]2 | [B,EG]2 [B,EG]2 z2[K:bass] [A,C]>[A,=B,E] | %31
 [B,E] [G,B,E]3 [B,,B,] [B,,A,]3 |[M:3/4] [E,G,]6 |] %33
V:3
 x8 | x8 | x8 | x8 | x8 | x8 | x8 | x8 | z4 A,2 E>F | x8 | x8 | x8 | x8 | x8 | x8 | x8 | x8 | x8 | %18
 x8 | x8 | x8 | x8 | x8 | x8 | B,2 z2 z4 | x8 | x8 | x8 | x8 | x8 | x8 | x8 |[M:3/4] x6 |] %33
V:4
 x8 | x8 | x8 | x8 | x8 | x8 | x8 | x8 | B,,6 z2 | x8 | x8 | x8 | x8 | x8 | x4[K:bass] x4 | x8 | %16
 G,2- [B,,G,]2 C,2 D,2 | x8 | E,2 B,,2 E,2 z z/ B,/ | x8 | x8 | x8 | x8 | x8 | E,6 z2 | x8 | %26
 E,2 B,,2 E,2 z z/ B,/ | x6[K:treble] x2 | x8 | x8 | x6[K:bass] x2 | x8 |[M:3/4] x6 |] %33

